flaticon/emoticons/desperate-1.svg

<svg xmlns="http://www.w3.org/2000/svg" width="32" height="32" viewBox="0 0 24 24">
    <path d="M 12 12.546875 C 8.390625 12.546875 5.453125 15.480469 5.453125 19.089844 C 5.453125 19.390625 5.699219 19.636719 6 19.636719 L 18 19.636719 C 18.300781 19.636719 18.546875 19.390625 18.546875 19.089844 C 18.546875 15.480469 15.609375 12.546875 12 12.546875 Z M 12 13.636719 C 14.246094 13.636719 16.175781 15 17.011719 16.941406 C 15.832031 16.246094 14.054688 15.816406 12 15.816406 C 9.945312 15.816406 8.167969 16.246094 6.988281 16.941406 C 7.824219 15 9.753906 13.636719 12 13.636719 Z M 12 16.910156 C 14.574219 16.910156 16.609375 17.691406 17.246094 18.546875 L 6.753906 18.546875 C 7.390625 17.691406 9.425781 16.910156 12 16.910156 Z M 12 16.910156"/>
    <path d="M 12 0 C 5.382812 0 0 5.382812 0 12 C 0 18.617188 5.382812 24 12 24 C 18.617188 24 24 18.617188 24 12 C 24 5.382812 18.617188 0 12 0 Z M 12 22.910156 C 5.984375 22.910156 1.089844 18.015625 1.089844 12 C 1.089844 5.984375 5.984375 1.089844 12 1.089844 C 18.015625 1.089844 22.910156 5.984375 22.910156 12 C 22.910156 18.015625 18.015625 22.910156 12 22.910156 Z M 12 22.910156"/>
    <path d="M17.648438 11.875C17.753906 11.957031 17.875 12 18 12 18.15625 12 18.3125 11.933594 18.417969 11.804688 18.613281 11.574219 18.582031 11.226562 18.351562 11.035156L15.578125 8.726562 18.351562 6.417969C18.582031 6.226562 18.613281 5.882812 18.417969 5.652344 18.226562 5.417969 17.882812 5.386719 17.652344 5.582031L14.378906 8.308594C14.253906 8.410156 14.183594 8.566406 14.183594 8.726562 14.183594 8.890625 14.253906 9.042969 14.378906 9.144531zM5.582031 11.804688C5.6875 11.933594 5.84375 12 6 12 6.125 12 6.246094 11.957031 6.351562 11.875L9.621094 9.144531C9.746094 9.042969 9.816406 8.890625 9.816406 8.726562 9.816406 8.566406 9.746094 8.410156 9.621094 8.308594L6.351562 5.582031C6.117188 5.386719 5.773438 5.417969 5.582031 5.652344 5.386719 5.882812 5.417969 6.226562 5.652344 6.417969L8.421875 8.726562 5.652344 11.035156C5.417969 11.226562 5.386719 11.574219 5.582031 11.804688zM5.582031 11.804688"/>
</svg>

<svg xmlns="http://www.w3.org/2000/svg" width="32" height="32" viewBox="0 0 24 24">
    <path d="M12 12.547c-3.61 0-6.547 2.933-6.547 6.543 0 .3.246.547.547.547h12c.3 0 .547-.246.547-.547 0-3.61-2.938-6.543-6.547-6.543zm0 1.09a5.46 5.46 0 0 1 5.012 3.304c-1.18-.695-2.957-1.125-5.012-1.125-2.055 0-3.832.43-5.012 1.125A5.46 5.46 0 0 1 12 13.637zm0 3.273c2.574 0 4.61.781 5.246 1.637H6.754C7.39 17.69 9.426 16.91 12 16.91zm0 0"/>
    <path d="M12 0C5.383 0 0 5.383 0 12s5.383 12 12 12 12-5.383 12-12S18.617 0 12 0zm0 22.91C5.984 22.91 1.09 18.016 1.09 12S5.984 1.09 12 1.09 22.91 5.984 22.91 12 18.016 22.91 12 22.91zm0 0"/>
    <path d="M17.648 11.875A.57.57 0 0 0 18 12a.545.545 0 0 0 .352-.965l-2.774-2.308 2.774-2.309a.54.54 0 0 0 .066-.766.538.538 0 0 0-.766-.07L14.38 8.309a.54.54 0 0 0-.195.418c0 .164.07.316.195.418zm0 0M5.582 11.805A.539.539 0 0 0 6 12a.57.57 0 0 0 .352-.125l3.27-2.73a.534.534 0 0 0 .194-.418.54.54 0 0 0-.195-.418l-3.27-2.727a.542.542 0 0 0-.769.07.538.538 0 0 0 .07.766l2.77 2.309-2.77 2.308a.542.542 0 0 0-.07.77zm0 0"/>
</svg>
